X:13
T:Bonnie Nancy
R:Air
C:Phil Cunningham
M:C
L:1/4
K:G
g|f3/2 g/2 f e | d3 e| d3/2 D/2 d c | B3 g|
 f3/2 g/2 f e | d D d/2 c B/4A/4| G3/2 D/2 E F | G3 :|
|F/2E/2|D3/2 F/2 A c| B3 B| A3/2 B/2 c e | A3 G|
F/2 D3/2 E F| G g f/2 e d/4c/4|B3/2 D/2 E F| G3 F/2E/2|
D3/2 F/2 A c| B3 B/2_B/2| A3/2 B/2 c e | A3 g|
f3/2 g/2 f e | d D d/2 c B/4A/4| G3/2 D/2 E F | G3 |
